src/img/svg/logo-bank/28.svg

<svg width="151" height="35" viewBox="0 0 151 35" fill="none" xmlns="http://www.w3.org/2000/svg">
<g clip-path="url(#clip0_34_3498)">
<path fill-rule="evenodd" clip-rule="evenodd" d="M125.365 6.82049L125.951 10.915H124.753L125.365 6.82049ZM120.705 16.2139H123.9L124.273 13.8856H126.483L126.856 16.2139H130.052L127.362 2.72594H123.421L120.705 16.2139ZM102.625 2.72594L104.968 5.91062L107.338 2.72594H110.001V16.2139H106.859V7.97134L104.968 10.3262L103.078 7.97134V16.1872H99.9356V2.72594H102.625ZM44.1242 2.75267H50.568V6.09785H47.3195V16.1603H44.1242V2.75267ZM141.794 2.72594H144.856V7.57001H145.522L147.28 2.7261H150.635L148.238 9.09546L150.981 16.1603H147.36L145.602 10.7545H144.856V16.1603H141.794V2.72594ZM131.383 2.72594H134.445V7.57001H136.628V2.72594H139.717V16.1872H136.628V10.7811H134.445V16.1603H131.383V2.72594ZM115.193 13.4574V10.4067H115.646C116.019 10.4067 117.004 10.4067 117.004 11.7982C117.004 13.1899 116.019 13.4841 115.646 13.4841L115.193 13.4574ZM112.131 16.1336H115.886C116.445 16.1603 117.03 16.0532 117.563 15.8393C118.096 15.6252 118.575 15.304 118.974 14.8756C119.374 14.4743 119.667 13.9659 119.88 13.4307C120.066 12.8954 120.146 12.3067 120.093 11.7447C120.093 8.31922 117.457 7.73035 115.752 7.73035H115.22V5.96407H119.401V2.75267H112.158V16.1603H112.131V16.1336ZM93.4651 13.0559C92.3468 13.0559 91.7876 11.7983 91.7876 9.46991C91.7876 7.14165 92.3468 5.8839 93.4651 5.8839C94.5834 5.8839 95.1427 7.14165 95.1427 9.46991C95.1427 11.7982 94.5834 13.0559 93.4651 13.0559ZM93.4651 16.2406C97.1929 16.2406 98.4444 12.8687 98.4444 9.49679C98.4444 6.12473 97.1929 2.75267 93.4651 2.75267C89.7639 2.75267 88.4858 6.12457 88.4858 9.49663C88.4858 12.8685 89.7373 16.2406 93.4651 16.2406ZM82.4945 5.69652H83.24C83.9591 5.69652 84.4117 6.12473 84.4117 7.22197C84.4117 8.69382 83.6662 8.77415 83.24 8.77415H82.4945V5.69652ZM79.4057 16.1872H82.5215V11.7447H83.5866C86.7016 11.7447 87.6602 8.96153 87.6602 7.19525C87.6602 5.42897 86.5686 2.69922 83.5866 2.69922H79.4057V16.1872ZM69.0209 2.72594H77.5954V16.2139H74.453V5.96407H72.1631V16.2139H69.0209V2.72594ZM62.6037 7.99806C62.7901 8.02479 62.9765 7.99806 63.1362 7.94461C63.2961 7.89101 63.4558 7.78396 63.6157 7.67691C63.7487 7.56985 63.8552 7.4092 63.9351 7.2487C64.0149 7.08804 64.0683 6.90082 64.0683 6.74016C64.0683 6.57966 64.0149 6.39228 63.9618 6.23178C63.8856 6.07597 63.7766 5.9389 63.6422 5.8303C63.5091 5.7234 63.3493 5.64307 63.1896 5.58947C63.0298 5.53602 62.8435 5.53602 62.6836 5.53602C62.0978 5.53602 61.512 5.66964 60.9528 5.91062V3.0471C61.8582 2.80627 62.7634 2.69922 63.6955 2.69922C66.2517 2.69922 67.4233 4.43878 67.4233 6.09785C67.45 6.74016 67.2636 7.38247 66.8907 7.94446C66.5446 8.47972 66.0121 8.90793 65.3996 9.14875V9.28253C66.0653 9.46991 66.6245 9.89812 67.0239 10.4601C67.4233 11.0221 67.6097 11.7178 67.5565 12.4138C67.5565 14.8758 65.7724 16.2139 63.4825 16.2139C62.444 16.2673 61.4321 16.0265 60.5268 15.5448L60.58 12.8418C61.2457 13.1362 61.9381 13.27 62.6569 13.2433C62.8435 13.27 63.0032 13.2433 63.1629 13.1899C63.3228 13.1364 63.4825 13.0559 63.6157 12.9221C63.7487 12.8152 63.8552 12.6546 63.9351 12.4939C64.0149 12.3334 64.0416 12.1728 64.0416 11.9856C64.0416 11.2629 63.5623 10.7545 62.4705 10.7545H61.2457V7.99806H62.6037ZM54.9084 6.79377L55.5209 10.8883H54.3225L54.9084 6.79377ZM50.2485 16.1872H53.4438L53.8166 13.8589H56.0002L56.3729 16.1872H59.5683L56.8789 2.69922H52.938L50.2485 16.1872ZM48.0917 26.6778H49.2368L48.651 22.6365L48.0917 26.6778ZM50.5947 18.6494L53.2042 31.8963H50.0889L49.7161 29.6216H47.5859L47.2131 31.8963H44.0977L46.7072 18.6494H50.5947ZM77.1424 21.7801C76.0773 21.7801 75.5182 23.0379 75.5182 25.3664C75.5182 27.6947 76.0773 28.9526 77.1424 28.9526C78.2342 28.9526 78.7668 27.6947 78.7668 25.3664C78.7668 23.0379 78.2075 21.7801 77.1424 21.7801ZM77.1424 18.5687C80.7639 18.5687 81.9887 21.9675 81.9887 25.3664C81.9887 28.7652 80.7639 32.1639 77.1424 32.1639C73.5211 32.1639 72.2963 28.7652 72.2963 25.3664C72.2963 21.9675 73.5211 18.5687 77.1424 18.5687ZM63.0032 18.6494V21.9409H65.5595V31.8693H68.6483V21.9409H71.2045V18.6494H63.0032ZM57.3848 26.3832H57.9173C58.1837 26.3832 58.3966 26.4904 58.583 26.7311C58.7694 26.9453 58.8494 27.2934 58.8494 27.7213C58.8494 28.1496 58.7694 28.4705 58.583 28.7116C58.3966 28.9256 58.1837 29.0593 57.9173 29.0593H57.3848V26.3832ZM57.3848 21.4593H57.8375C58.0772 21.4593 58.2636 21.566 58.3966 21.7537C58.5298 21.9409 58.6097 22.2351 58.6097 22.6365C58.6097 23.0379 58.5298 23.3326 58.3966 23.5467C58.2636 23.7339 58.0772 23.8408 57.8375 23.8408H57.3848V21.4593ZM54.3759 31.8693H57.9972C58.6097 31.8693 59.1688 31.7625 59.6481 31.5752C60.1274 31.3878 60.5535 31.1202 60.8731 30.7987C61.2192 30.4512 61.4588 30.0763 61.6453 29.6216C61.8317 29.1666 61.9115 28.6849 61.9115 28.1496C61.9115 27.8014 61.8849 27.4536 61.805 27.106C61.7252 26.7581 61.6186 26.437 61.4854 26.1425C61.3257 25.8479 61.1393 25.5802 60.9263 25.3664C60.6867 25.1523 60.4203 24.9651 60.0742 24.8577C60.1274 24.8577 60.2074 24.7774 60.3671 24.6974C60.5268 24.59 60.6867 24.4299 60.8731 24.2422C61.0595 24.0284 61.1925 23.7608 61.3524 23.4129C61.4854 23.0649 61.5653 22.6365 61.5653 22.155C61.5653 21.6734 61.4854 21.1916 61.2991 20.7632C61.1428 20.3407 60.8974 19.9572 60.5802 19.6392C60.2606 19.3184 59.8878 19.0774 59.4352 18.8899C58.9824 18.7025 58.4766 18.6223 57.9173 18.6223H54.3759V31.8693ZM123.581 32.0834H126.643V26.7311H128.827V32.1104H131.915V18.6494H128.827V23.4931H126.643V18.6494H123.581V32.0834ZM134.072 32.0834H137.268V22.0213H140.516V18.6494H134.072V32.0834ZM104.915 23.8946V26.7311H106.193C107.258 26.7311 107.738 27.2131 107.738 27.9624C107.738 28.1496 107.684 28.3103 107.604 28.4705C107.524 28.6315 107.418 28.7652 107.285 28.899C107.152 29.0057 106.992 29.1131 106.832 29.1666C106.672 29.2202 106.486 29.2469 106.326 29.2202C105.607 29.2469 104.888 29.1131 104.249 28.8187L104.196 31.5217C105.101 32.003 106.14 32.2442 107.178 32.1907C109.442 32.1907 111.252 30.8258 111.252 28.3637C111.306 27.6677 111.119 26.9986 110.72 26.437C110.32 25.875 109.761 25.4465 109.096 25.2591V25.1253C109.708 24.8848 110.214 24.4299 110.56 23.8946C110.906 23.3326 111.066 22.6903 111.039 22.0213C111.039 20.3353 109.894 18.5957 107.312 18.5957C106.38 18.5957 105.474 18.7025 104.569 18.9436V21.7537C105.128 21.5126 105.714 21.4057 106.3 21.4322C106.46 21.4057 106.646 21.4322 106.806 21.486C106.965 21.5396 107.125 21.6198 107.258 21.7268C107.391 21.8337 107.498 21.9945 107.578 22.1283C107.658 22.2888 107.684 22.4492 107.684 22.6365C107.658 22.9844 107.498 23.3326 107.232 23.5731C106.965 23.8143 106.619 23.921 106.246 23.921H104.915V23.8946ZM84.5184 18.5687V25.9552C84.5184 28.3367 84.1988 28.899 83.5331 28.899C83.2934 28.872 83.0538 28.8456 82.8141 28.7916V31.9496C83.2135 32.1104 83.6396 32.1907 84.0923 32.1907C87.4473 32.1907 87.4473 28.9526 87.4473 27.1324V21.8072H88.6723V32.003H91.6013V18.5687H84.5184ZM93.8912 18.6761V32.1104H96.7404L99.5895 24.8577V32.1104H102.439V18.6761H99.5895L96.767 25.9283V18.6761H93.8912ZM115.646 18.6761V25.9283L118.469 18.6761H121.344V32.1104H118.495V24.8577L115.646 32.1104H112.797V18.6761H115.646Z" fill="#476BF0"/>
<path d="M0 17.2521C0 26.7685 7.64874 34.5039 17.0379 34.5039C26.4273 34.5039 34.0759 26.7685 34.0759 17.2521C34.0759 7.73542 26.4273 0 17.0379 0C7.64858 0 0 7.73542 0 17.2521ZM0.580206 17.2521C0.580206 8.05437 7.96504 0.584778 17.0381 0.584778C26.111 0.584778 33.4958 8.0811 33.4958 17.2521C33.4958 26.4496 26.111 33.9192 17.0381 33.9192C7.96536 33.9192 0.580206 26.4496 0.580206 17.2521ZM5.3014 12.5204C9.65295 9.6229 14.4796 7.94811 22.6556 9.35708C23.1041 9.09125 23.3414 8.852 23.4734 8.29379C21.4425 7.54945 19.227 7.28363 16.3521 7.33676C13.7939 7.41646 9.15197 8.37349 6.6992 9.86215L7.46407 8.90513C9.20469 7.89497 13.6883 6.51257 17.0643 6.4596C19.438 6.40631 20.6776 6.5393 23.4998 7.31004C23.2624 6.80512 22.6556 6.56586 21.8117 6.19362C19.0688 4.94436 13.9521 4.83794 9.75854 6.69885C10.286 6.35317 10.8135 6.00765 11.473 5.71526C12.8444 5.07719 15.1127 4.46585 17.9346 4.49242C20.2029 4.51914 22.8667 5.31645 24.5284 6.96452C24.7921 7.28363 24.9503 7.62915 25.0295 7.92154C26.3217 8.58618 27.0866 9.22409 27.5086 9.94185C27.6933 10.3139 27.746 10.7393 27.6669 11.1913C28.2208 11.5102 28.4582 11.8026 28.7219 12.1481C28.9064 12.4405 29.0647 12.7862 29.0911 13.1052C29.1438 13.5304 29.1965 13.9823 28.7746 14.514C29.223 14.7267 29.5659 15.3646 29.6186 15.6304C29.8296 16.614 29.1965 17.5976 28.3526 18.3419C27.4032 19.1925 25.2932 20.2027 23.5788 20.6546C20.1502 21.5318 17.1434 21.9039 14.7433 22.3292C15.8247 22.5951 17.2753 22.9406 19.6754 22.9406C24.7658 22.9406 29.2758 20.4951 29.2758 20.4951C29.2758 20.4951 29.1702 20.814 29.0647 21.1064C25.8207 23.0736 20.6776 23.9242 18.4886 23.8179C16.2467 23.7115 14.3741 23.366 12.5279 22.8078C11.9741 22.9672 11.4202 23.1267 10.8664 23.366C13.7147 24.7216 15.8247 25.014 18.2249 25.2002C20.6513 25.3863 24.6865 24.7748 28.1152 23.5254C27.957 23.6849 27.8778 23.9242 27.7197 24.0837C25.9789 25.014 22.2865 25.9445 20.4403 26.0242C18.594 26.1039 16.3521 26.0242 14.4005 25.6521C12.7126 25.333 11.341 24.7748 9.91685 24.1369C9.6531 24.3228 9.52115 24.5887 9.46843 24.8545C15.0334 27.8318 20.3085 27.9115 26.269 26.0242L25.7151 26.5558C19.1215 29.2672 13.9784 28.2039 9.99592 26.2634C9.86413 26.2103 9.70582 26.1305 9.60038 26.0773C9.96956 26.742 13.0027 28.9748 16.405 29.2672C18.7524 29.4533 21.6007 29.0545 23.3151 28.3635L22.3128 28.8951C21.4952 29.2938 19.3062 30.2242 16.2731 30.0381C12.2115 29.7723 9.9432 27.9381 8.91459 26.9812C8.43982 26.5293 8.20243 26.0242 8.07064 25.3863C7.14745 24.9078 6.56725 24.4027 6.09248 23.6318C5.80237 23.1798 5.85509 22.7013 5.93432 22.2761C5.96068 22.1431 5.98704 22.0103 6.03976 21.9039C5.59135 21.5849 5.14293 21.2394 4.95842 20.8937C4.56273 20.1495 4.80011 19.538 5.09022 19.033C4.85283 18.7671 4.6156 18.4747 4.53653 18.2089C4.43093 17.8634 4.40458 17.5444 4.43093 17.1988C4.51001 16.5874 4.82647 16.0292 5.24853 15.5241C6.14535 14.4874 7.51679 13.6899 9.91669 12.8925C12.264 12.1216 13.1874 11.9886 14.9545 11.5899C17.0116 11.1114 19.4644 10.952 21.548 10.2342C15.8247 9.14439 9.83777 10.0747 4.98478 13.4772L5.3014 12.5204ZM24.8712 8.9317C24.7921 9.22409 24.502 9.5432 24.291 9.7823C24.9239 9.94185 25.557 10.1811 26.1636 10.4204C26.0845 9.86215 25.425 9.30379 24.8712 8.9317ZM7.17381 20.5748C6.80463 20.3621 6.54089 20.2292 6.25079 19.99C6.09248 20.3621 6.40909 20.7609 6.72556 20.947C6.88371 20.814 7.04202 20.7077 7.17381 20.5748ZM26.5327 12.9722C26.9548 13.1849 27.324 13.3444 27.6669 13.5837C27.9307 13.0786 27.7724 12.7595 27.2185 12.2811C27.0339 12.5468 26.7965 12.7595 26.5327 12.9722ZM25.3196 13.7165C24.4755 14.1153 23.2887 14.514 21.548 14.9659C20.1502 15.3114 16.6951 15.8165 13.0027 16.6406C11.8158 16.9064 8.65084 17.6507 7.09474 19.0064C7.51679 19.3521 7.80689 19.4583 8.28166 19.7242C8.94095 19.2988 9.81141 18.9001 11.1036 18.5546C13.3719 17.9431 15.0598 17.6773 17.117 17.3583C19.1479 17.0128 22.9459 16.2153 25.0559 15.4444C25.7415 15.2052 26.3746 14.8596 26.8494 14.4874C26.7174 14.328 25.3723 13.6634 25.3196 13.7165ZM9.33664 22.6748C9.6531 22.4886 10.0223 22.3027 10.4443 22.1166C9.86413 21.8773 9.25741 21.5849 8.62448 21.3191C8.33438 21.5052 8.097 21.6912 7.91233 21.8773L9.33664 22.6748ZM7.38484 22.8609C7.38484 23.233 7.59587 23.5787 8.12335 24.0039C8.17607 23.7912 8.28166 23.6318 8.43997 23.4457C8.07064 23.2863 7.7013 23.0736 7.38484 22.8609ZM10.2597 15.7634C14.4269 14.5405 18.7787 14.1419 23.2097 12.9722C21.4689 12.4938 20.5193 12.2811 18.6995 12.4938C16.0357 12.8128 13.1345 13.3975 10.629 14.1419C9.6531 14.4343 4.51001 15.9229 5.98704 17.9962C5.98704 18.023 6.85735 16.7735 10.2597 15.7634ZM25.8471 11.4569C25.1613 11.138 24.3173 10.8456 23.4205 10.6065C23.025 10.9254 22.5502 11.2178 21.8909 11.4837C23.025 11.6962 23.8426 11.9887 24.7921 12.2811C24.9503 12.3608 25.7151 11.6165 25.8471 11.4569ZM27.9043 15.4976C27.7724 15.6038 27.6406 15.7102 27.4823 15.8431C26.5327 16.5874 25.0559 17.1722 22.9986 17.7304C18.7258 18.9001 15.6138 19.0595 12.0795 19.9368C11.3939 20.0962 10.6817 20.3355 9.99592 20.6279C10.6554 20.9736 11.3674 21.266 12.1059 21.5583C13.5302 21.133 14.2422 20.947 16.2994 20.6013C17.0907 20.4685 19.5436 20.0431 21.2842 19.6445C24.4755 18.9533 29.1438 17.4646 27.9043 15.4976Z" fill="#476BF0"/>
</g>
<defs>
<clipPath id="clip0_34_3498">
<rect width="150.978" height="34.5836" fill="white"/>
</clipPath>
</defs>
</svg>

<svg width="151" height="35" viewBox="0 0 151 35" fill="none" xmlns="http://www.w3.org/2000/svg"><g clip-path="url(#a)" fill="#476BF0"><path fill-rule="evenodd" clip-rule="evenodd" d="m125.365 6.82.586 4.095h-1.198l.612-4.095Zm-4.66 9.394h3.195l.373-2.328h2.21l.373 2.328h3.196l-2.69-13.488h-3.941l-2.716 13.488Zm-18.08-13.488 2.343 3.185 2.37-3.185h2.663v13.488h-3.142V7.97l-1.891 2.355-1.89-2.355v8.216h-3.142V2.726h2.689Zm-58.5.027h6.443v3.345H47.32V16.16h-3.196V2.753Zm97.669-.027h3.062V7.57h.666l1.758-4.844h3.355l-2.397 6.37 2.743 7.064h-3.621l-1.758-5.405h-.746v5.405h-3.062V2.726Zm-10.411 0h3.062V7.57h2.183V2.726h3.089v13.461h-3.089v-5.406h-2.183v5.38h-3.062V2.725Zm-16.19 10.731v-3.05h.453c.373 0 1.358 0 1.358 1.391 0 1.392-.985 1.686-1.358 1.686l-.453-.027Zm-3.062 2.677h3.755a4.047 4.047 0 0 0 1.677-.295 3.901 3.901 0 0 0 1.411-.963c.4-.402.693-.91.906-1.445a4.048 4.048 0 0 0 .213-1.686c0-3.426-2.636-4.015-4.341-4.015h-.532V5.964h4.181V2.753h-7.243V16.16h-.027v-.026Zm-18.666-3.078c-1.118 0-1.677-1.258-1.677-3.586s.559-3.586 1.677-3.586c1.118 0 1.678 1.258 1.678 3.586s-.56 3.586-1.678 3.586Zm0 3.185c3.728 0 4.98-3.372 4.98-6.744s-1.252-6.744-4.98-6.744c-3.701 0-4.98 3.372-4.98 6.744 0 3.371 1.252 6.744 4.98 6.744ZM82.495 5.697h.745c.72 0 1.172.428 1.172 1.525 0 1.472-.746 1.552-1.172 1.552h-.745V5.697Zm-3.09 10.49h3.117v-4.442h1.065c3.115 0 4.073-2.783 4.073-4.55 0-1.766-1.091-4.496-4.073-4.496h-4.181v13.488ZM69.022 2.726h8.574v13.488h-3.142V5.964h-2.29v10.25h-3.142V2.726Zm-6.417 5.272c.186.027.373 0 .532-.053.16-.054.32-.161.48-.268a1.29 1.29 0 0 0 .32-.428c.079-.161.132-.348.132-.509 0-.16-.053-.348-.106-.508a1.185 1.185 0 0 0-.32-.402 1.482 1.482 0 0 0-.452-.24c-.16-.054-.346-.054-.506-.054a4.38 4.38 0 0 0-1.731.375V3.047a10.59 10.59 0 0 1 2.742-.348c2.557 0 3.728 1.74 3.728 3.399a3.107 3.107 0 0 1-.532 1.846A3.163 3.163 0 0 1 65.4 9.15v.134c.665.187 1.224.615 1.624 1.177.4.562.586 1.258.532 1.954 0 2.462-1.784 3.8-4.073 3.8a5.656 5.656 0 0 1-2.956-.67l.053-2.702a4.646 4.646 0 0 0 2.077.401c.187.027.346 0 .506-.053.16-.054.32-.134.453-.268.133-.107.24-.267.32-.428.079-.16.106-.321.106-.508 0-.723-.48-1.232-1.572-1.232h-1.224V7.998h1.358Zm-7.696-1.204.613 4.094h-1.199l.586-4.094Zm-4.66 9.393h3.196l.373-2.328H56l.373 2.328h3.195L56.878 2.7h-3.94l-2.69 13.488Zm-2.156 10.49h1.145l-.586-4.04-.56 4.04Zm2.503-8.028 2.61 13.247H50.09l-.373-2.274h-2.13l-.373 2.274h-3.115l2.61-13.247h3.887Zm26.547 3.131c-1.065 0-1.624 1.258-1.624 3.586 0 2.329.56 3.587 1.624 3.587 1.092 0 1.625-1.258 1.625-3.587 0-2.328-.56-3.586-1.625-3.586Zm0-3.211c3.622 0 4.847 3.399 4.847 6.797 0 3.4-1.225 6.798-4.847 6.798-3.62 0-4.846-3.399-4.846-6.798 0-3.398 1.225-6.797 4.846-6.797Zm-14.139.08v3.292h2.556v9.928h3.09v-9.928h2.555v-3.292h-8.2Zm-5.618 7.734h.532c.267 0 .48.107.666.348.186.214.266.562.266.99 0 .429-.08.75-.266.99-.186.215-.4.348-.666.348h-.532v-2.676Zm0-4.924h.453c.24 0 .426.107.559.295.133.187.213.481.213.883 0 .4-.08.696-.213.91a.658.658 0 0 1-.56.294h-.452v-2.382Zm-3.01 10.41h3.622c.613 0 1.172-.107 1.651-.294.48-.187.905-.455 1.225-.776.346-.348.586-.723.772-1.177.187-.455.266-.937.266-1.472a4.62 4.62 0 0 0-.106-1.044 5.099 5.099 0 0 0-.32-.964 3.385 3.385 0 0 0-.559-.776 2.271 2.271 0 0 0-.852-.508c.053 0 .133-.08.293-.16.16-.108.32-.268.506-.456.187-.214.32-.481.48-.83a3.55 3.55 0 0 0 .212-1.257c0-.482-.08-.963-.266-1.392a3.129 3.129 0 0 0-.719-1.124 3.419 3.419 0 0 0-1.145-.75c-.453-.186-.958-.267-1.518-.267h-3.541V31.87Zm69.206.214h3.062v-5.352h2.184v5.38h3.088V18.648h-3.088v4.844h-2.184V18.65h-3.062v13.434Zm10.491 0h3.196V22.021h3.248V18.65h-6.444v13.434Zm-29.157-8.188v2.836h1.278c1.065 0 1.545.482 1.545 1.231 0 .188-.054.348-.134.509a1.63 1.63 0 0 1-.319.428 1.56 1.56 0 0 1-.453.268 1.1 1.1 0 0 1-.506.053 4.576 4.576 0 0 1-2.077-.401l-.053 2.703a5.754 5.754 0 0 0 2.982.669c2.264 0 4.074-1.365 4.074-3.827a2.907 2.907 0 0 0-.532-1.927c-.4-.562-.959-.99-1.624-1.178v-.134c.612-.24 1.118-.695 1.464-1.23a3.286 3.286 0 0 0 .479-1.874c0-1.686-1.145-3.425-3.727-3.425-.932 0-1.838.107-2.743.348v2.81a3.905 3.905 0 0 1 1.731-.322 1.1 1.1 0 0 1 .506.054c.159.054.319.134.452.24.133.108.24.268.32.402.08.16.106.321.106.509a1.42 1.42 0 0 1-.452.936c-.267.241-.613.348-.986.348h-1.331v-.026Zm-20.397-5.326v7.386c0 2.382-.32 2.944-.985 2.944-.24-.027-.48-.053-.719-.107v3.158c.4.16.826.24 1.278.24 3.355 0 3.355-3.237 3.355-5.058v-5.325h1.225v10.196h2.93V18.569h-7.084Zm9.373.107V32.11h2.85l2.849-7.252v7.252h2.849V18.676h-2.85l-2.822 7.252v-7.252h-2.876Zm21.755 0v7.252l2.823-7.252h2.875V32.11h-2.849v-7.252l-2.849 7.252h-2.849V18.676h2.849Z"/><path d="M0 17.252c0 9.517 7.649 17.252 17.038 17.252 9.39 0 17.038-7.735 17.038-17.252S26.427 0 17.038 0C7.648 0 0 7.735 0 17.252Zm.58 0C.58 8.054 7.965.585 17.038.585c9.073 0 16.458 7.496 16.458 16.667 0 9.198-7.385 16.667-16.458 16.667C7.965 33.92.58 26.45.58 17.252Zm4.721-4.732c4.352-2.897 9.179-4.572 17.355-3.163.448-.266.685-.505.817-1.063-2.03-.745-4.246-1.01-7.12-.957-2.56.08-7.201 1.036-9.654 2.525l.765-.957c1.74-1.01 6.224-2.392 9.6-2.445 2.374-.054 3.614.08 6.436.85-.238-.505-.844-.744-1.688-1.116-2.743-1.25-7.86-1.356-12.053.505.527-.346 1.054-.691 1.714-.984 1.371-.638 3.64-1.25 6.462-1.223 2.268.027 4.932.824 6.593 2.473.264.319.422.664.502.957 1.292.664 2.057 1.302 2.479 2.02.184.372.237.797.158 1.25.554.318.791.61 1.055.956.184.293.343.638.37.957.052.425.105.877-.317 1.409.448.213.79.85.844 1.116.21.984-.422 1.968-1.266 2.712-.95.85-3.06 1.86-4.774 2.313-3.429.877-6.436 1.249-8.836 1.674 1.082.266 2.532.612 4.932.612 5.09 0 9.6-2.446 9.6-2.446s-.105.319-.21.611c-3.244 1.968-8.387 2.818-10.576 2.712-2.242-.107-4.115-.452-5.961-1.01-.554.16-1.108.319-1.662.558 2.849 1.356 4.959 1.648 7.359 1.834 2.426.186 6.461-.425 9.89-1.675-.158.16-.237.4-.395.559-1.741.93-5.433 1.86-7.28 1.94-1.846.08-4.088 0-6.04-.372-1.687-.319-3.059-.877-4.483-1.515a1.118 1.118 0 0 0-.449.718c5.565 2.977 10.84 3.056 16.801 1.17l-.554.53c-6.593 2.712-11.737 1.649-15.72-.292a5.625 5.625 0 0 1-.395-.186c.37.665 3.403 2.898 6.805 3.19 2.347.186 5.196-.212 6.91-.904l-1.002.532c-.818.399-3.007 1.33-6.04 1.143-4.062-.266-6.33-2.1-7.358-3.057-.475-.452-.713-.957-.844-1.595-.924-.478-1.504-.983-1.979-1.754-.29-.452-.237-.93-.158-1.356.027-.133.053-.266.106-.372-.449-.32-.897-.665-1.082-1.01-.395-.744-.158-1.356.132-1.861-.237-.266-.474-.558-.553-.824a2.645 2.645 0 0 1-.106-1.01c.079-.612.395-1.17.818-1.675.896-1.037 2.268-1.834 4.668-2.631 2.347-.771 3.27-.904 5.037-1.303 2.058-.479 4.51-.638 6.594-1.356-5.723-1.09-11.71-.16-16.563 3.243l.316-.957Zm19.57-3.588c-.079.292-.369.611-.58.85.633.16 1.266.4 1.873.638-.08-.558-.739-1.116-1.293-1.488ZM7.174 20.575c-.37-.213-.633-.346-.923-.585-.159.372.158.77.475.957.158-.133.316-.24.448-.372Zm19.359-7.603c.422.213.791.372 1.134.612.264-.505.105-.825-.449-1.303-.184.266-.421.478-.685.691Zm-1.213.745c-.845.398-2.031.797-3.772 1.249-1.398.345-4.853.85-8.545 1.675-1.187.265-4.352 1.01-5.908 2.365.422.346.712.452 1.187.718.659-.425 1.53-.824 2.822-1.17 2.268-.61 3.956-.877 6.013-1.196 2.03-.345 5.829-1.143 7.939-1.914a6.388 6.388 0 0 0 1.793-.957c-.132-.159-1.477-.824-1.53-.77ZM9.337 22.675a10.71 10.71 0 0 1 1.107-.558c-.58-.24-1.187-.532-1.82-.798-.29.186-.527.372-.712.558l1.425.798Zm-1.952.186c0 .372.21.718.738 1.143.053-.213.159-.372.317-.558a6.727 6.727 0 0 1-1.055-.585Zm2.875-7.098c4.167-1.223 8.519-1.621 12.95-2.79-1.741-.48-2.69-.692-4.51-.48-2.664.32-5.566.905-8.071 1.649-.976.292-6.119 1.78-4.642 3.854 0 .027.87-1.223 4.273-2.233Zm15.587-4.306c-.686-.319-1.53-.611-2.427-.85-.395.318-.87.61-1.53.877 1.135.212 1.953.505 2.902.797.158.08.923-.665 1.055-.824Zm2.057 4.04a25.13 25.13 0 0 0-.422.346c-.95.744-2.426 1.33-4.483 1.887-4.273 1.17-7.385 1.33-10.92 2.207-.685.16-1.397.398-2.083.69.66.347 1.371.639 2.11.931 1.424-.425 2.136-.611 4.193-.957.792-.133 3.245-.558 4.985-.956 3.192-.692 7.86-2.18 6.62-4.147Z"/></g><defs><clipPath id="a"><path fill="#fff" d="M0 0h150.978v34.584H0z"/></clipPath></defs></svg>
